X:13
T:Galliard: Mille Ducas
C:Tylman Susato, Danserye, 1551
M:6/4
L:1/8
K:D dorian
"Dm"D2D2D2 "C"E4"Am"E2 | "Dm"F2F2"Bb"F2 "Em"G4"Am"E2 | "Am"E3F"Em"GE "Dm F"F4"C"E2 | "Dm"D2"A"^CB,C2 "D"D4z2 ::"C"E2E2"Em"E2 "Dm"F3GAG | "Dm"F2"C"E2"Dm"D2 "A"^C4"Dm"D2 | 
"C"E2E2E2 "F"F4"C"E2 | "Dm"E4D2 "A"E4z2 ::"Am"C2"F"C2"Bb"D2 "G"B,2"Am"C2"F"A,2 | "G"B,2"F"C2"G"DE "F"F4"C"E2 | "Dm Asus4"D4^C2 "D"D4z2 :| 

